!!!SOCIAL_FUNCTION:	songs of the drum-presentation ceremony
!!!REG: Great Lakes
!!!PDT:	1913
!!!OTL: No_75_Fourth_Song_of_the_Dog_Feast.krn
**kern	**kern
*staff2	*staff1
=1-	=1-
*clefF4	*clefF4
*k[b-e-a-]	*k[b-e-a-]
*M5/4	*M5/4
12GG^/	4e-\
12r	.
12GG/	.
12GG^/	16f\LK
.	8.e-\J
12r	.
12GG/	.
12GG^/	4e-\
12r	.
12GG/	.
12GG^/	16c\LK
.	8.c\J
12r	.
12GG/	.
12GG^/	4c\
12r	.
12GG/	.
=2	=2
1r	4e-\
.	16e-\LK
.	8.e-\J
.	4e-\
.	16c\LK
.	8.c\J
4r	4c\
=3!|:	=3!|:
*M2/4	*M2/4
2r	4e-\
.	16c\LK
.	8.c\J
=4	=4
2r	2c\
=5||	=5||
*M3/4	*M3/4
2.r	4Bn\
.	16B\LK
.	8.A-\J
.	16F\LK
.	8.F\J
=6||	=6||
*M2/4	*M2/4
2r	16A-\LK
.	8.A-\J
.	16A-\LK
.	8.F\J
=7	=7
2r	4E-\
.	4E-\
=8	=8
2r	8.C/L
.	16C/Jk
.	4C;/
=9||	=9||
*M3/4	*M3/4
2.r	4E-\
.	16F\LK
.	8.E-\J
.	4E-;\
=10||	=10||
*M2/4	*M2/4
2r	4C/
.	8.C/L
.	16C/Jk
=11	=11
2r	[2C/
=12	=12
2r	2C/]
==:|!	==:|!
*-	*-
